static/img/article-icons/shell.svg

<?xml version="1.0" standalone="no"?><!-- Generator: Gravit.io --><svg xmlns="http://www.w3.org/2000/svg" xmlns:xlink="http://www.w3.org/1999/xlink" style="isolation:isolate" viewBox="344 5.692 30 22.581" width="30" height="22.581"><path d=" M 367.722 28.273 L 345.197 28.273 C 344.428 28.273 343.859 27.559 344.031 26.81 L 348.457 7.49 C 348.691 6.439 349.372 5.692 350.449 5.692 L 372.846 5.692 C 373.587 5.692 374.136 6.38 373.97 7.103 L 369.444 26.9 C 369.261 27.703 368.546 28.273 367.722 28.273 Z  M 351.618 25.253 L 361.977 17.813 C 362.606 17.358 362.74 16.386 362.169 15.833 L 355.324 8.564 C 354.196 7.366 352.271 9.179 353.399 10.377 L 359.208 16.546 L 350.075 23.105 C 348.616 24.154 350.158 26.301 351.618 25.253 Z  M 364.283 22.68 L 358.784 22.68 C 357.2 22.68 357.2 25.072 358.784 25.072 L 364.283 25.072 C 365.843 25.072 365.843 22.68 364.283 22.68 Z " fill="rgb(195,219,15)"/></svg>

<svg xmlns="http://www.w3.org/2000/svg" style="isolation:isolate" viewBox="344 5.7 30 22.6" width="30" height="22.6"><path d="M367.7 28.3h-22.5c-.8 0-1.3-.7-1.2-1.5l4.5-19.3c.2-1 .9-1.8 2-1.8h22.3c.8 0 1.3.7 1.2 1.4l-4.6 19.8c-.1.8-.9 1.4-1.7 1.4zm-16-3l10.3-7.5c.6-.4.7-1.4.2-2l-6.9-7.2c-1.1-1.2-3 .6-1.9 1.8l5.8 6.1-9.1 6.6c-1.5 1 0 3.2 1.5 2.2zm12.6-2.6h-5.5c-1.6 0-1.6 2.4 0 2.4h5.5c1.5 0 1.5-2.4 0-2.4z" fill="#C3DB0F"/></svg>
